X:1815
T:Halling efter Per Myhr 
T:Oktavstämma
R:Halling
Z:Arr/transkr. Lennart Sohlman
M:2/4
L:1/16
Q:1/4=100
K:Dm
(E|:A2)(AB) A2(AF)|A2(GE) F2(F>G|A2)(AB A2)(AF)|[1A2GE F3(G:|[2A2GE F3(E|:!
D2)(DF E2)(E^C|A,2)(A,^C) E2(AF)|D2(DF) {FG}(FE)(E^C)|A,2(A,^C) E2(AF)|!
D2(DF) (FE)(^CE)|[1D4 [A,3D3](F:|[2D4 [A,4D4]|]
(:musicend:)

Ingår i kategorin [[!andrastämma]].
(:music:)
